images/graalvm.svg

<svg width="32" height="32" viewBox="0 0 32 32" fill="none" xmlns="http://www.w3.org/2000/svg">
<path d="M6.38106 27.1373C6.38106 27.1373 7.95561 27.1408 7.95796 27.1389C9.18942 27.1389 9.3272 26.4909 9.85882 25.8243C10.3897 25.1576 10.6703 24.8418 10.9962 25.0893C12.1414 26.0069 13.0946 26.7044 13.9287 26.0764C15.4396 24.9191 16.1067 22.0827 17.5208 20.4519C17.851 20.03 18.5879 19.4039 18.9384 18.9995C19.1028 18.8262 19.0083 18.6619 18.8389 18.7638C18.1258 19.2427 16.5185 20.2903 15.3284 22.5034C14.2288 24.5089 13.4345 25.1935 12.5473 24.6619C12.0926 24.4078 11.8131 24.0421 11.1949 23.6092C10.5762 23.1763 9.97318 24.0639 9.65546 24.382C9.33735 24.7002 8.6902 25.6217 8.1336 25.7275C7.577 25.8336 6.95405 25.6748 6.56998 26.4433C6.34476 26.8805 6.38106 27.1373 6.38106 27.1373Z" fill="#2C7493"/>
<path d="M20.9459 11.7031C21.5943 12.5759 21.5463 13.3206 21.0221 14.0271C20.6489 14.5915 20.4213 15.063 20.3491 15.8272C20.2539 17.0892 21.2098 18.2515 22.355 18.3659C22.9292 18.3897 23.426 18.1992 23.8343 17.7956C25.1887 16.4564 25.1825 13.1949 25.1731 12.7027L25.7637 12.6953C25.8245 12.8518 26.0263 13.3272 26.4377 13.9365C27.953 16.1801 29.2117 16.7301 30.2199 16.5259C30.9104 16.3678 28.9096 14.8991 28.7473 14.7429C28.5845 14.5864 28.6899 14.4564 28.9803 14.62C29.0732 14.6723 32.9249 16.6746 31.7742 17.5162C30.8089 18.1746 29.1712 17.9978 27.9334 16.9436C26.6829 15.8413 25.6247 13.7062 25.6146 13.6848L25.5459 13.5458C25.5459 13.5458 25.5365 13.5267 25.5357 13.5478C25.5377 13.6184 25.5427 13.821 25.5439 13.869C25.604 17.1926 24.5587 18.9752 22.5669 19.1672C21.0552 19.2851 19.3128 18.1746 19.0892 16.3233C18.8374 13.6504 20.5822 12.013 20.9459 11.7031Z" fill="#2C7493"/>
<path d="M6.71581 5.60435C6.71581 5.60435 6.96367 5.12933 7.60769 5.42637C8.11433 5.67149 9.1518 6.72964 10.2548 8.9775C12.2053 13.036 11.7385 10.9974 10.8376 8.86352C10.4637 7.9775 10.03 7.10357 9.5511 6.40334C9.06632 5.69491 8.27904 4.84167 7.60262 4.45876C6.57803 3.88772 6.35282 4.44705 6.42424 4.97867C6.46406 5.31044 6.71581 5.60435 6.71581 5.60435Z" fill="#2C7493"/>
<path d="M0.286913 27.5427C0.651081 27.0997 0.983244 26.9358 1.82087 26.9358C2.66826 26.9358 2.94187 26.7 3.6503 25.3604C4.43328 23.8796 5.18348 23.3901 5.84702 22.9572C6.45319 22.6173 7.30799 22.1848 7.72602 21.1551C7.8158 20.9568 7.9325 20.6325 8.06716 20.257L8.07692 20.2301C8.22641 19.8132 8.40167 19.3257 8.58551 18.8846L8.58746 18.8936C8.58746 18.8936 9.15537 17.4514 8.89425 19.4045C8.77676 20.2835 8.82985 20.8386 8.92352 21.1875C9.01018 21.428 9.16162 21.6875 9.42782 21.9139C9.79589 22.2273 9.32946 22.0704 8.70221 22.3194C8.55662 22.3768 8.41025 22.4799 8.26037 22.6055C7.89425 22.9853 7.41962 23.3885 6.85483 23.6781C5.38293 24.4319 4.60112 25.9213 4.10463 26.5579L3.9727 26.7484C3.27989 27.75 2.89854 28.3011 2.13937 28.3011C2.13937 28.3011 0.0367175 28.3031 0.0351562 28.3011C0.0398401 28.1785 0.071456 27.8058 0.286913 27.5427Z" fill="#2C7493"/>
<path d="M14.5969 11.1992C15.5017 9.73748 17.3889 8.11609 19.8381 8.11609C19.9931 8.11609 20.1512 8.12273 20.3108 8.13639C20.3132 8.13639 20.3151 8.13717 20.3167 8.13717C20.6719 7.57433 21.1976 6.83936 21.6364 6.62858C22.1465 6.38385 22.8268 6.57628 23.0513 7.27729C23.2043 7.75505 23.0844 8.65669 22.9494 8.55989C22.7773 8.43655 22.7964 6.85028 21.9447 7.3858C21.6157 7.59345 21.3666 8.15083 21.2862 8.34911C22.1953 8.63092 22.8826 9.11804 23.3374 9.80345C23.6289 10.2652 24.1043 11.3101 23.7917 12.5759C23.6535 13.1356 23.572 12.442 23.4217 11.7137C23.2819 11.1005 23.102 10.4182 22.3928 9.83233C21.6836 9.24646 20.6352 8.87956 19.3928 9.01656C18.1894 9.152 17.1106 9.74568 16.3128 10.6891C16.1153 10.9221 15.6406 11.6262 15.552 11.7629C15.0208 12.5829 14.7168 13.0505 13.668 13.04C13.8354 12.595 14.1192 11.9709 14.5969 11.1992Z" fill="#2C7493"/>
<path d="M4.79485 4.77499C5.36159 5.12238 6.05792 5.68795 6.80305 6.56031C7.61686 7.51426 8.54856 8.84993 9.57198 10.531C10.168 11.5096 10.3413 12.0771 10.3093 12.1442C10.3085 12.1442 10.3085 12.1442 10.3085 12.1442C10.2921 12.1442 10.0755 12.1165 9.11218 10.7715C6.98806 7.686 5.12389 5.64267 4.67151 5.90145L4.66995 5.90223C4.61608 5.9358 4.58759 6.00528 4.58603 6.1091C4.62077 7.31871 7.19532 11.8683 10.8749 14.0326C10.3374 15.3972 10.5361 16.5349 11.1575 17.6583C11.5833 18.428 13.1469 20.0072 14.5911 19.5947C16.0357 19.1817 15.5806 15.1801 13.2055 14.3761C12.5263 14.168 12.0973 14.5935 11.9455 15.1677C11.8019 15.7098 11.8686 16.3757 11.9147 16.6926C11.9315 16.8082 11.878 16.7754 11.8468 16.7246C10.9803 15.3023 11.6399 14.0385 12.449 13.7828C13.3936 13.4846 14.6813 14.1614 15.4596 15.4432C16.7109 17.6829 16.1215 19.5794 15.1192 20.179C13.3187 21.2797 10.3741 19.3589 9.75777 17.1021C9.5267 16.1637 9.66917 15.1926 10.0173 14.4026C4.79602 10.7719 3.62428 7.36633 3.39243 5.65282C3.26675 4.52909 4.03919 4.31207 4.79485 4.77499Z" fill="#2C7493"/>
</svg>

<svg xmlns="http://www.w3.org/2000/svg" width="32" height="32" fill="none"><path fill="#2C7493" d="M6.381 27.137s1.575.004 1.577.002c1.231 0 1.37-.648 1.9-1.315.532-.666.812-.982 1.138-.735 1.145.918 2.099 1.615 2.933.987 1.51-1.157 2.178-3.993 3.592-5.624.33-.422 1.067-1.048 1.417-1.453.165-.173.07-.337-.1-.235-.712.479-2.32 1.526-3.51 3.74-1.1 2.005-1.893 2.69-2.78 2.158-.455-.254-.735-.62-1.353-1.053-.619-.433-1.222.455-1.54.773s-.965 1.24-1.521 1.345c-.557.107-1.18-.052-1.564.716-.225.438-.189.694-.189.694m14.565-15.434c.648.873.6 1.618.076 2.324-.373.565-.6 1.036-.673 1.8-.095 1.262.86 2.425 2.006 2.539a1.9 1.9 0 0 0 1.48-.57c1.354-1.34 1.348-4.601 1.338-5.093l.59-.008c.061.157.263.632.675 1.242 1.515 2.243 2.774 2.793 3.782 2.589.69-.158-1.31-1.627-1.473-1.783-.163-.157-.057-.287.233-.123.093.052 3.945 2.055 2.794 2.896-.965.659-2.603.482-3.84-.572-1.251-1.103-2.31-3.238-2.32-3.26l-.068-.138s-.01-.02-.01.002l.008.321c.06 3.324-.985 5.106-2.977 5.298-1.512.118-3.254-.992-3.478-2.844-.252-2.673 1.493-4.31 1.857-4.62M6.716 5.604s.248-.475.892-.178c.506.245 1.544 1.304 2.647 3.551 1.95 4.059 1.483 2.02.583-.113-.374-.887-.808-1.76-1.287-2.46-.485-.71-1.272-1.562-1.948-1.945-1.025-.571-1.25-.012-1.179.52.04.331.292.625.292.625M.287 27.543c.364-.443.696-.607 1.534-.607.847 0 1.12-.236 1.83-1.576.782-1.48 1.532-1.97 2.196-2.403.606-.34 1.461-.772 1.879-1.802.09-.198.207-.523.341-.898l.01-.027c.15-.417.325-.904.509-1.345l.001.009s.568-1.443.307.51c-.117.88-.064 1.435.03 1.784.086.24.238.5.504.726.368.313-.099.156-.726.405-.145.058-.292.16-.442.287a5.4 5.4 0 0 1-1.405 1.072c-1.472.754-2.254 2.243-2.75 2.88l-.132.19c-.693 1.002-1.074 1.553-1.834 1.553 0 0-2.102.002-2.104 0 .005-.122.036-.495.252-.758"/><path fill="#2C7493" d="M14.597 11.2c.905-1.463 2.792-3.084 5.241-3.084q.233 0 .473.02l.006.001c.355-.563.88-1.298 1.32-1.508.51-.245 1.19-.053 1.414.648.153.478.033 1.38-.102 1.283-.172-.123-.153-1.71-1.004-1.174-.33.207-.578.765-.659.963.91.282 1.597.769 2.051 1.454.292.462.767 1.507.455 2.773-.139.56-.22-.134-.37-.862-.14-.614-.32-1.296-1.03-1.882-.708-.586-1.757-.952-3-.815-1.203.135-2.281.729-3.08 1.672-.197.233-.671.937-.76 1.074-.531.82-.835 1.287-1.884 1.277.167-.445.451-1.07.929-1.84M4.795 4.775c.567.347 1.263.913 2.008 1.785.814.954 1.746 2.29 2.769 3.971.596.979.77 1.546.737 1.613-.017 0-.233-.027-1.197-1.373-2.124-3.085-3.988-5.128-4.44-4.87l-.002.001q-.081.051-.084.207c.035 1.21 2.61 5.76 6.289 7.924-.538 1.364-.339 2.502.283 3.625.425.77 1.989 2.35 3.433 1.937 1.445-.413.99-4.415-1.385-5.219-.68-.208-1.109.218-1.26.792-.144.542-.077 1.208-.031 1.525.017.115-.037.082-.068.032-.867-1.423-.207-2.687.602-2.942.945-.298 2.232.378 3.01 1.66 1.252 2.24.663 4.136-.34 4.736-1.8 1.1-4.745-.82-5.361-3.077-.231-.938-.089-1.91.26-2.7-5.222-3.63-6.394-7.036-6.626-8.75-.125-1.123.647-1.34 1.403-.877"/></svg>
